atari/_inc/system.svg

<svg xmlns="http://www.w3.org/2000/svg"><g fill="#fff"><path d="m48.963 81.496c14.235-21.549 13.914-67.419 13.914-78.72h10.482c-.042 4.35 2.286 48.078-5.097 75.615s-34.944 58.428-68.262 58.428v-19.539c9.798 0 34.734-14.235 48.963-35.784z"/><path d="m76.272 2.776h18.786v134.319h-18.786z"/><path d="m122.361 81.496c-14.235-21.549-13.914-67.419-13.914-78.72h-10.482c.042 4.35-2.286 48.078 5.097 75.615s34.944 58.428 68.262 58.428v-19.539c-9.798 0-34.734-14.235-48.963-35.784z"/><path d="m578.418 3.54h21.582v135.654h-21.582z"/><path d="m237.669.106c-6.798 0-12.6 4.212-14.844 10.233v.111l-38.457 128.751h23.049l8.886-34.971h42.84l9.333 34.971h23.613l-39.468-128.862h-.111c-2.271-5.991-8.043-10.233-14.841-10.233zm-.228 29.574 14.844 56.448h-29.349z"/><path d="m279.609 3.031v18.213h33.507v117.957h21.588v-117.957h33.621v-18.213z"/><path d="m533.49 89.944c-.63-1.074-1.011-2.37-1.011-3.807 0-1.299.33-2.475.84-3.486.801-1.26 2.232-1.974 3.186-2.58 11.238-6.831 19.218-21.192 19.218-37.824 0-22.305-14.04-40.581-31.449-41.991-2.169-.285-7.062-.255-7.062-.255h-24.567.015c-8.52 0-15.45 9.225-15.45 20.592l.033.033v118.557h20.976v-110.094h-.009c0-3.45 2.1-6.264 4.683-6.264h14.154c1.284 0 5.127.096 5.889.24v.012c6.258.684 11.34 6.627 12.816 14.493.081.321.138.639.18.963v.072c.084.483.123.939.165 1.407.078.732.09 1.476.09 2.232 0 7.242-2.994 13.578-7.422 16.866-.9.711-1.827 1.329-2.811 1.863-.693.42-1.5.81-2.346 1.188-5.658 2.661-8.085 4.239-10.449 7.266-2.649 3.699-4.323 8.694-4.368 14.214-.042 5.19 1.311 9.93 3.618 13.602l26.646 41.958h24.957l-30.522-49.26"/><path d="m412.086.106c-6.795 0-12.597 4.212-14.841 10.233v.111l-38.454 128.751h23.049l8.883-34.971h42.84l9.336 34.971h23.61l-39.465-128.862h-.114c-2.268-5.991-8.04-10.233-14.844-10.233zm-.222 29.574 14.841 56.448h-29.346z"/></g></svg>

<?xml version="1.0" encoding="utf-8"?>
<svg version="1.1" xmlns="http://www.w3.org/2000/svg">
  <g>
    <path d="M 48.963 81.496 C 63.198 59.947 62.877 14.077 62.877 2.776 L 73.359 2.776 C 73.317 7.126 75.645 50.854 68.262 78.391 C 60.879 105.928 33.318 136.819 0 136.819 L 0 117.28 C 9.798 117.28 34.734 103.045 48.963 81.496 Z" id="path13" style="fill: rgb(255, 255, 255);"/>
    <rect width="18.786" height="134.319" x="76.272" y="2.776" id="rect2854" style="fill: rgb(255, 255, 255);"/>
    <path d="M 122.361 81.496 C 108.126 59.947 108.447 14.077 108.447 2.776 L 97.965 2.776 C 98.007 7.126 95.679 50.854 103.062 78.391 C 110.445 105.928 138.006 136.819 171.324 136.819 L 171.324 117.28 C 161.526 117.28 136.59 103.045 122.361 81.496 Z" id="path2858" style="fill: rgb(255, 255, 255);"/>
    <rect width="21.582" height="135.654" x="578.418" y="3.54" id="rect3" style="fill: rgb(255, 255, 255);"/>
    <path d="M 237.669 0.106 C 230.871 0.106 225.069 4.318 222.825 10.339 L 222.825 10.45 L 184.368 139.201 L 207.417 139.201 L 216.303 104.23 L 259.143 104.23 L 268.476 139.201 L 292.089 139.201 L 252.621 10.339 L 252.51 10.339 C 250.239 4.348 244.467 0.106 237.669 0.106 Z M 237.441 29.68 L 252.285 86.128 L 222.936 86.128 L 237.441 29.68 Z" id="path5" style="fill: rgb(255, 255, 255);"/>
    <path d="M 279.609 3.031 L 279.609 21.244 L 313.116 21.244 L 313.116 139.201 L 334.704 139.201 L 334.704 21.244 L 368.325 21.244 L 368.325 3.031 L 279.609 3.031 Z" id="path7" style="fill: rgb(255, 255, 255);"/>
    <path d="M 533.49 89.944 C 532.86 88.87 532.479 87.574 532.479 86.137 C 532.479 84.838 532.809 83.662 533.319 82.651 C 534.12 81.391 535.551 80.677 536.505 80.071 C 547.743 73.24 555.723 58.879 555.723 42.247 C 555.723 19.942 541.683 1.666 524.274 0.256 C 522.105 -0.029 517.212 0.001 517.212 0.001 L 492.645 0.001 L 492.66 0.001 C 484.14 0.001 477.21 9.226 477.21 20.593 L 477.243 20.626 L 477.243 139.183 L 498.219 139.183 L 498.219 29.089 L 498.21 29.089 C 498.21 25.639 500.31 22.825 502.893 22.825 L 517.047 22.825 C 518.331 22.825 522.174 22.921 522.936 23.065 L 522.936 23.077 C 529.194 23.761 534.276 29.704 535.752 37.57 C 535.833 37.891 535.89 38.209 535.932 38.533 C 535.932 38.563 535.932 38.596 535.932 38.605 C 536.016 39.088 536.055 39.544 536.097 40.012 C 536.175 40.744 536.187 41.488 536.187 42.244 C 536.187 49.486 533.193 55.822 528.765 59.11 C 527.865 59.821 526.938 60.439 525.954 60.973 C 525.261 61.393 524.454 61.783 523.608 62.161 C 517.95 64.822 515.523 66.4 513.159 69.427 C 510.51 73.126 508.836 78.121 508.791 83.641 C 508.749 88.831 510.102 93.571 512.409 97.243 L 539.055 139.201 L 564.012 139.201 L 533.49 89.941" id="path9" style="fill: rgb(255, 255, 255);"/>
    <path d="M 412.086 0.106 C 405.291 0.106 399.489 4.318 397.245 10.339 L 397.245 10.45 L 358.791 139.201 L 381.84 139.201 L 390.723 104.23 L 433.563 104.23 L 442.899 139.201 L 466.509 139.201 L 427.044 10.339 L 426.93 10.339 C 424.662 4.348 418.89 0.106 412.086 0.106 Z M 411.864 29.68 L 426.705 86.128 L 397.359 86.128 L 411.864 29.68 Z" id="path2852" style="fill: rgb(255, 255, 255);"/>
  </g>
</svg>
